src/assets/icons/payview/wallet-card.svg

<svg width="48" height="48" viewBox="0 0 48 48" fill="none" xmlns="http://www.w3.org/2000/svg">
<path fill-rule="evenodd" clip-rule="evenodd" d="M24.7586 24H29.5862C30.1201 24 30.5517 23.553 30.5517 23C30.5517 22.447 30.1201 22 29.5862 22H24.7586C24.2247 22 23.7931 22.447 23.7931 23C23.7931 23.553 24.2247 24 24.7586 24ZM33.4483 24H34.4138C34.9477 24 35.3793 23.553 35.3793 23C35.3793 22.447 34.9477 22 34.4138 22H33.4483C32.9143 22 32.4828 22.447 32.4828 23C32.4828 23.553 32.9143 24 33.4483 24ZM44.069 24.043C44.069 26.225 42.3552 28 40.2484 28H23.7516C21.6448 28 19.931 26.225 19.931 24.043V17H44.069V24.043ZM23.7516 8H40.2484C42.0346 8 43.5264 9.281 43.9425 11H20.0575C20.4737 9.281 21.9654 8 23.7516 8ZM19.931 15H44.069V13H19.931V15ZM40.2484 6H23.7516C20.5799 6 18 8.672 18 11.957V24.043C18 27.328 20.5799 30 23.7516 30H32H40.2484C43.4201 30 46 27.328 46 24.043V11.957C46 8.672 43.4201 6 40.2484 6Z" fill="#253238"/>
<path d="M26.2 14.2L28.4 19.8C30.5 20.4 32 22.3 32 24.6V29.6V35.6V37.6C32 40.4 29.8 42.6 27 42.6H7C4.2 42.6 2 40.4 2 37.6V24.6C2 22.4 3.3 20.6 5.2 19.9L5.5 19.6L15 13.2C15.2 13 15.5 13 15.8 13C16 13.1 16.3 13.3 16.4 13.4L18.2 16.4C18.3 16.5 18.3 16.6 18.3 16.7L24.8 13.6C25.1 13.5 25.3 13.5 25.6 13.6C25.9 13.7 26.1 13.9 26.2 14.2Z" fill="#F5F7F8"/>
<path d="M28.4 19.8L26.2 14.2C26.1 13.9 25.9 13.7 25.6 13.6C25.3 13.5 25.1 13.5 24.8 13.6L18.3 16.7C18.3 16.6 18.3 16.5 18.2 16.4L16.4 13.4C16.3 13.3 16 13.1 15.8 13C15.5 13 15.2 13 15 13.2L5.5 19.6C5.4 19.7 5.3 19.8 5.2 19.9C3.3 20.6 2 22.4 2 24.6V37.6C2 40.4 4.2 42.6 7 42.6H27C29.8 42.6 32 40.4 32 37.6V35.6V29.6V24.6C32 22.3 30.5 20.4 28.4 19.8ZM26.1 19.6H17.1L24.7 16L26.1 19.6ZM15.2 15.4L16.4 17.5L16.5 17.6L12.5 19.5H9.2L15.2 15.4ZM27 40.6H7C5.3 40.6 4 39.2 4 37.6V24.6C4 22.9 5.4 21.6 7 21.6H27C28.7 21.6 30 23 30 24.6V28.6H24C21.8 28.6 20 30.4 20 32.6C20 34.8 21.8 36.6 24 36.6H30V37.6C30 39.2 28.6 40.6 27 40.6ZM30 34.6H24C22.9 34.6 22 33.7 22 32.6C22 31.5 22.9 30.6 24 30.6H30V34.6Z" fill="#253238"/>
</svg>

<svg width="48" height="48" fill="none" xmlns="http://www.w3.org/2000/svg"><path fill-rule="evenodd" clip-rule="evenodd" d="M24.759 24h4.827c.534 0 .966-.447.966-1 0-.553-.432-1-.966-1H24.76c-.534 0-.966.447-.966 1 0 .553.432 1 .966 1Zm8.69 0h.965c.534 0 .965-.447.965-1 0-.553-.431-1-.965-1h-.966c-.534 0-.965.447-.965 1 0 .553.431 1 .965 1Zm10.62.043c0 2.182-1.714 3.957-3.82 3.957H23.751c-2.107 0-3.821-1.775-3.821-3.957V17h24.138v7.043ZM23.752 8h16.496c1.787 0 3.278 1.281 3.695 3H20.058c.416-1.719 1.907-3 3.694-3Zm-3.821 7h24.138v-2H19.931v2Zm20.317-9H23.752C20.58 6 18 8.672 18 11.957v12.086C18 27.328 20.58 30 23.752 30h16.496C43.42 30 46 27.328 46 24.043V11.957C46 8.672 43.42 6 40.248 6Z" fill="#253238"/><path d="m26.2 14.2 2.2 5.6c2.1.6 3.6 2.5 3.6 4.8v13c0 2.8-2.2 5-5 5H7c-2.8 0-5-2.2-5-5v-13c0-2.2 1.3-4 3.2-4.7l.3-.3 9.5-6.4c.2-.2.5-.2.8-.2.2.1.5.3.6.4l1.8 3c.1.1.1.2.1.3l6.5-3.1c.3-.1.5-.1.8 0 .3.1.5.3.6.6Z" fill="#F5F7F8"/><path d="m28.4 19.8-2.2-5.6c-.1-.3-.3-.5-.6-.6-.3-.1-.5-.1-.8 0l-6.5 3.1c0-.1 0-.2-.1-.3l-1.8-3c-.1-.1-.4-.3-.6-.4-.3 0-.6 0-.8.2l-9.5 6.4-.3.3c-1.9.7-3.2 2.5-3.2 4.7v13c0 2.8 2.2 5 5 5h20c2.8 0 5-2.2 5-5v-13c0-2.3-1.5-4.2-3.6-4.8Zm-2.3-.2h-9l7.6-3.6 1.4 3.6Zm-10.9-4.2 1.2 2.1.1.1-4 1.9H9.2l6-4.1ZM27 40.6H7c-1.7 0-3-1.4-3-3v-13c0-1.7 1.4-3 3-3h20c1.7 0 3 1.4 3 3v4h-6c-2.2 0-4 1.8-4 4s1.8 4 4 4h6v1c0 1.6-1.4 3-3 3Zm3-6h-6c-1.1 0-2-.9-2-2s.9-2 2-2h6v4Z" fill="#253238"/></svg>
